X:1
T: Willie's Ga'en A-coortin'
C:
R:Jig
I:speed 180
K:F
M:6/8
L:1/16
|:c2|A2G2F2 F2A2c2|f4g2 a4g2|f2e2d2 cf3A2|G6 c4B2|A2G2F2 F2A2c2|f4g2 a4b2|c'2a2f2 c2d2e2|f6 f2e2d2|
c2A2F2 F2A2c2|f4g2 a4g2|f2e2d2 cf3A2|G6 c4B2|A2G2F2 F2A2c2|f4g2 a4b2|c'2b2a2 g2f2e2|f6f4g2|
a4a2 a2c'2a2|g4g2 g2c'2g2|f4f2 f2g2f2|e4d2 c2e2g2|a4a2 a2c'2a2|g4g2 g2c'2g2|f4f2 f2g2f2|e4d2 c4B2|
A2G2F2 F2A2c2|f4g2 a4g2|f2e2d2 cf3A2|G6 G4cB|A2G2F2 F2A2c2|f4g2 a4b2|c'2a2f2 c2d2e2|f6-f4:|
